X:1
T:Jack Broke da Prison Door
C:Jack Goudie
O:Shetland
R:Reel
O:Shetland
M:4/4
K:G
"G" G2BG BdBG| "C" cBAB "D" dBAB| "G" G2BG BdBG| ABAG "C" E2D2:|
|:"G" g2gd "Em" edBG| "G" g2gd "C" eaaf| "G" g2gd "Em" edBG| "G" ABAG "C" E2D2:|
